tools/download-figma-icons/icons/solid/freedom.svg

<svg width="24" height="24" viewBox="0 0 24 24" fill="none" xmlns="http://www.w3.org/2000/svg">
<path d="M22.6422 6.41115L21.563 5.30949C21.1733 3.99799 20.1766 2.84387 18.97 2.33426C17.8384 1.85462 16.5943 1.95205 15.4702 2.61155C13.4242 3.80314 13.2669 5.97648 13.3493 7.1231C8.52297 8.08987 4.47605 4.3727 3.68915 3.5933C3.47182 3.38346 3.16455 3.29353 2.87228 3.35348C2.57251 3.41343 2.32519 3.62327 2.22027 3.90806C-0.545116 10.9227 3.62171 14.8797 5.87749 16.4235L1.51581 18.5069C1.29098 18.6118 1.12611 18.8067 1.04367 19.039C0.96873 19.2713 0.991212 19.5261 1.10363 19.736C1.56827 20.6203 2.54253 22.0442 4.56599 23.7829C4.73835 23.9328 4.94819 24.0002 5.15803 24.0002C5.3304 24.0002 5.51027 23.9478 5.66015 23.8428L8.56793 21.8943C13.3568 22.5164 17.7334 19.9608 19.0974 17.1729C20.1166 15.082 20.6562 12.8487 20.7461 10.3531C20.7836 9.34891 21.1583 9.00417 21.1883 8.98169L22.5972 7.80508C22.7996 7.63271 22.9195 7.3854 22.9345 7.1231C22.9495 6.8608 22.8445 6.5985 22.6647 6.41864L22.6422 6.41115Z" fill="black"/>
<path d="M14.1287 5.87883C13.9263 5.82637 9.4897 4.68723 6.3496 1.92184C5.95989 2.87362 5.54771 4.20011 5.61516 5.5191L4.1163 5.59404C4.01138 3.53311 4.83575 1.51715 5.34536 0.49793C5.47276 0.235631 5.72008 0.0557678 6.00486 0.0108021C6.28964 -0.0341636 6.58192 0.063262 6.78426 0.265608C9.63209 3.15091 14.4434 4.40245 14.4959 4.40995L14.1287 5.86384V5.87883Z" fill="black"/>
<path d="M16.5716 6.58354C16.4742 6.58354 16.3692 6.55356 16.2718 6.5011C16.0095 6.33622 15.9271 5.99149 16.092 5.72919C16.3543 5.30951 16.744 5.0547 17.1936 5.00974C17.6882 4.96477 18.1904 5.1821 18.5576 5.5868C18.7674 5.81912 18.7524 6.17135 18.5201 6.38119C18.2878 6.59103 17.9356 6.57604 17.7257 6.34372C17.5983 6.20133 17.4334 6.11889 17.2985 6.12638C17.2686 6.12638 17.1636 6.14137 17.0512 6.32124C16.9463 6.4936 16.7589 6.58354 16.5716 6.58354Z" fill="white"/>
<path d="M6.33458 18.2601C6.25214 18.2601 6.16971 18.2451 6.08727 18.2151C5.35283 17.9528 4.46101 17.2858 4.36358 17.2109C4.03384 16.9636 3.96639 16.4914 4.22119 16.1617C4.4685 15.8319 4.94064 15.7645 5.27039 16.0193C5.48773 16.1842 6.15472 16.6488 6.58939 16.8062C6.97909 16.9486 7.18144 17.3758 7.04654 17.7655C6.93412 18.0727 6.64934 18.2676 6.34208 18.2676L6.33458 18.2601Z" fill="white"/>
</svg>

<svg width="24" height="24" viewBox="0 0 24 24" fill="none" xmlns="http://www.w3.org/2000/svg"><path d="M22.642 6.411 21.563 5.31c-.39-1.311-1.386-2.465-2.593-2.975-1.132-.48-2.376-.382-3.5.278-2.046 1.191-2.203 3.364-2.12 4.511-4.827.967-8.874-2.75-9.66-3.53a.915.915 0 0 0-.818-.24c-.3.06-.547.27-.652.555-2.765 7.015 1.402 10.972 3.657 12.516l-4.361 2.083a.919.919 0 0 0-.472.532.9.9 0 0 0 .06.697c.464.884 1.439 2.308 3.462 4.047a.89.89 0 0 0 .592.217.883.883 0 0 0 .502-.157l2.908-1.949c4.789.622 9.165-1.933 10.53-4.721 1.019-2.091 1.558-4.324 1.648-6.82.038-1.004.412-1.349.442-1.371l1.41-1.177a.967.967 0 0 0 .337-.682.937.937 0 0 0-.27-.704l-.023-.008Z" fill="currentColor"/><path d="M14.129 5.879c-.203-.053-4.64-1.192-7.78-3.957-.39.952-.801 2.278-.734 3.597l-1.499.075c-.105-2.06.72-4.077 1.23-5.096A.885.885 0 0 1 6.004.01a.909.909 0 0 1 .78.255c2.847 2.885 7.658 4.136 7.71 4.144l-.366 1.454v.015Zm2.443.705a.646.646 0 0 1-.3-.083.56.56 0 0 1-.18-.772c.262-.42.652-.674 1.102-.72.494-.044.996.173 1.364.578a.56.56 0 0 1-.038.794.56.56 0 0 1-.794-.037c-.128-.143-.293-.225-.427-.218-.03 0-.135.015-.248.195a.558.558 0 0 1-.48.263ZM6.335 18.26a.719.719 0 0 1-.248-.045c-.734-.262-1.626-.93-1.723-1.004a.744.744 0 0 1-.143-1.05.744.744 0 0 1 1.05-.142c.217.165.884.63 1.318.787a.76.76 0 0 1 .458.96.755.755 0 0 1-.705.502l-.007-.008Z" fill="currentColor"/></svg>
